X:1
T:Crucis Umbra, 76.86.86.86
T:Crucis Umbra, 76.86.86.86
T:Joseph Barnby, 1890
T:Public Domain Courtesy of the Cyber Hymnal™
C:Joseph Barnby, 1890
Z:Public Domain
Z:Courtesy of the Cyber Hymnal™
%%score ( 1 2 ) ( 3 4 )
L:1/8
Q:1/4=115
M:4/4
K:Ab
V:1 treble 
V:2 treble 
V:3 bass 
V:4 bass 
V:1
 E2 | [CA]2 [CA]2 [CG]2 [CG]2 | [CF]4 [CF]2 [EF]2 | [DF]2 [Ec]2 [FB]2 [FA]2 | [EG]6 [EG]2 | %5
 [EA]2 [EB]2 [Ec]2 [F=d]2 | [Ge]2 [Ed]2 [=EA]2 [EG]2 | F2 [CA]2 [=DA]2 [B,D]2 | [B,E]6 E2 | %9
 [DB]2 [DA]2 [DA]2 [DG]2 | [DF]3 [DE] [DE]2 [DE]2 | [CE]2 [Cc]2 [EB]2 [EA]2 | [DA]4 [Ad]2 [Ad]2 | %13
 [Ac]2 [EB]2 A2 [Ae]2 | [Ad]2 [Ac]2 A2 [FA][FA] | [EA]2 [EB]2 [DF]2 [DG]2 | [CA]6 |] %17
V:2
 E2 | x8 | x8 | x8 | x8 | x8 | x8 | F2 x6 | x6 E2 | x8 | x8 | x8 | x8 | x4 A2 x2 | x4 A2 x2 | x8 | %16
 x6 |] %17
V:3
 E,2 | [A,,E,]2 [A,,E,]2 [A,,E,]2 [A,,E,]2 | [A,,F,]4 [A,,F,]2 [=A,,C]2 | %3
 [B,,F,]2 [C,=A,]2 [D,B,]2 [B,,D]2 | [E,B,]6 [D,B,]2 | [C,E]2 [B,,D]2 [A,,C]2 [A,,_C]2 | %6
 [B,,B,]2 [B,,G,]2 [C,C]2 [B,C]2 | [A,C]2 [F,C]2 [B,,C]2 (B,A,) | [E,G,]6 E,2 | %9
 [E,G,]2 [E,A,]2 [E,A,]2 [E,B,]2 | [E,A,]3 [E,G,] [E,G,]2 [E,G,]2 | A,2 [A,,C]2 [_G,C]2 [G,C]2 | %12
 [F,D]4 [F,D]2 [F,D]2 | [E,E]2 [D,G,]2 [C,A,]2 [_G,C]2 | [F,D]2 [E,E]2 [=D,F]2 [D,B,][D,B,] | %15
 [E,C]2 [E,D]2 [E,A,]2 [E,B,]2 | [A,,A,]6 |] %17
V:4
 E,2 | x8 | x8 | x8 | x8 | x8 | x8 | x6 B,,2 | x6 E,2 | x8 | x8 | A,2 x6 | x8 | x8 | x8 | x8 | %16
 x6 |] %17

